!!!!SEGMENT: pl-kk--kk-i-389--005-003_anonim--missa-no-5-gloria.krn
!!!cenid: 17xx:2486
!!!COM: Anonim
!!!COM-rismID: pe30004985
!!!CDT:
!!!CNT:
!!!OPR: [Missa] No. 5.
!!!OTL: Gloria
!!!OMV: 003
!!!PDT:
!!!AGN: Sacred; Mass
!!!YEC: Copyright 2022 Narodowy Instytut Fryderyka Chopina (https://polishscores.org)
!!!YEM: License CC-BY-4.0 (https://creativecommons.org/licenses/by/4.0)
!!!SMS-siglum: PL-Kk
!!!SMS-shelfmark: Kk.I.389
!!!SMS-variant:
!!!SMS-altvar:
!!!SMS-shelfwork: 005-003 M
!!!NIFC-rismSourceID: 1001146182
!!!NIFC-rismChildID: 1001146646
!!!NIFC-islandoraID: pl-kk:6976
!!!URL-pdf-islandora: https://repozytorium.nifc.pl/islandora/object/pl-kk%3A6976/datastream/PDF/view
!!!URL-scan: https://polish.musicsources.pl/pl/lokalizacje/galeria/rekopisy/5999/1 @EN{Scan on Polish Music Sources Website} @PL{Skany w portalu Dziedzictwo Muzyki Polskiej w otwartym dostępie}
!!!IIIF:
!!!ONB-nifc: UWAGA: S – skan 9-10, A – 28-29 , T – 47-48 , B – 66-67 . Części Mszy: Rorate, Kyrie, Gloria, Graduale, Sanctus, Benedictus, Agnus.
!!!AIN: 1 alto 1 bass 1 soprn 1 tenor
!!!key: C
**kern	**text	**kern	**text	**kern	**text	**kern	**text
*part4	*part4	*part3	*part3	*part2	*part2	*part1	*part1
*staff4	*staff4	*staff3	*staff3	*staff2	*staff2	*staff1	*staff1
*I"Basso.	*	*I"Tenore.	*	*I"Alto.	*	*I"Soprano.	*
*I'[B]	*	*I'[T]	*	*I'[A]	*	*I'[S]	*
*ICvox	*	*ICvox	*	*ICvox	*	*ICvox	*
*Ibass	*	*Itenor	*	*Ialto	*	*Isoprn	*
*clefF4	*	*clefC4	*	*clefC3	*	*clefC1	*
*k[]	*	*k[]	*	*k[]	*	*k[]	*
*C:	*	*C:	*	*C:	*	*C:	*
*M3/2	*	*M3/2	*	*M3/2	*	*M3/2	*
=1	=1	=1	=1	=1	=1	=1	=1
!!LO:TX:t=P:problem:all\right	!	!	!	!	!	!	!
4C\	Et	4c\	Et	4g\	Et	4ee\	Et
4D\	in	4B\	in	4g\	in	4dd\	in
4E\	ter-	4c\	ter-	4g\	ter-	4ee\	ter-
4F\	-ra	4B\	-ra	4g\	-ra	4dd\	-ra
4G\	pax	4c\	pax	4g\	pax	4ee\	pax
4G\	ho-	4B\	ho-	4g\	ho-	4ee\	ho-
=2	=2	=2	=2	=2	=2	=2	=2
*2\right	*	*	*	*2\right	*	*2\right	*
2.c\	-mi-	2.G/	-mi-	2.g\	-mi-	2.ee\	-mi-
4G\	-ni-	4c\	-ni-	4g\	-ni-	4ee\	-ni-
*	*	*2\right	*	*	*	*	*
2C/	-bus	2c\	-bus,	2g\	-bus,	2ee\	-bus,
=3	=3	=3	=3	=3	=3	=3	=3
4c\	bo-	4e\	bo-	4g\	bo-	4cc\	bo-
4B\	-ne	4d\	-ne	4g\	-ne	4dd\	-ne
4A\	vo-	4c\	vo-	4f#X\	vo-	4dd\	vo-
4B\	-lun-	4d\	-lun-	4g\	-lun-	4dd\	-lun-
4A\	-ta-	4c\	-ta-	4f#\	-ta-	2dd\	-ta-
4G\	.	4B\	.	4g\	.	.	.
=4	=4	=4	=4	=4	=4	=4	=4
2D\	-tis	2A\	-tis	2f#X\	-tis,	2dd\	-tis
2r	.	2r	.	2r	.	2r	.
2r	.	2r	.	4f#\	Lau-	4a\	Lau-
.	.	.	.	4g\	.	4b\	.
=5	=5	=5	=5	=5	=5	=5	=5
2D\	Lau-	2F#X/	Lau-	4a\	-da-	4cc\	-da-
.	.	.	.	4f#X\	.	4a\	.
!	!	!	!	!	!	!LO:LB:g=original	!
2D\	-da-	2G/	-da-	2d\	.	2b\	.
2D\	-mus	2F#/	-mus	2c\	-mus	2a\	-mus
=6	=6	=6	=6	=6	=6	=6	=6
2G\	te,	2d\	te	2B/	te,	2g\	te,
!	!	!LO:LB:g=original	!	!LO:LB:g=original	!	!	!
2D\	be-	2d\	be-	2f#X\	be-	2a\	be-
4D\	-ne-	4d\	-ne-	4f#\	.	4a\	-ne-
4D\	-di-	4d\	-di-	4g\	-ne-	4b\	.
!LO:LB:g=original	!	!	!	!	!	!	!
=7	=7	=7	=7	=7	=7	=7	=7
1D	-ci-	2F#X/	-ci-	4a\	-di-	4cc\	-di-
!	!	!	!	!LO:SIC:v:s=4f#	!	!	!
.	.	.	.	4f\	.	4a\	.
.	.	2G/	.	2d\	-ci-	2b\	-ci-
2D\	-mus	2F#/	-mus	2c\	-mus	2a\	-mus
=8	=8	=8	=8	=8	=8	=8	=8
2G\	te,	2d\	te,	2B/	te	2g\	te,
2F#X\	a-	2A/	a-	2d\	a-	2cc\	a-
2D\	-do-	2F#X/	-do-	2d\	-do-	2a\	-do-
=9	=9	=9	=9	=9	=9	=9	=9
4G\	-ra-	4G/	-ra-	4d\	-ra-	4b\	-ra-
4G\	-mus	4G/	-mus	4e\	-mus	4cc\	-mus
2G\	te	2G/	te,	2d\	te,	2b\	te
2G\	glo-	2G/	glo-	2g\	glo-	2b\	glo-
=10	=10	=10	=10	=10	=10	=10	=10
4E\	-ri-	4c\	-ri-	4e\	-ri-	4cc\	-ri-
4C\	-fi-	4e\	-fi-	4a\	-fi-	4cc\	-fi-
2D\	-ca-	2d\	-ca-	2g\	-ca-	2b\	-ca-
2D\	-mus	2d\	-mus	2f#X\	-mus	2a\	-mus
!	!	!	!	!	!	!LO:LB:g=original	!
=11	=11	=11	=11	=11	=11	=11	=11
1G	te,	1d	te.	1g	te,	2b\	te,
.	.	.	.	.	.	2r	.
2r	.	2r	.	2r	.	2r	.
=12||	=12||	=12||	=12||	=12||	=12||	=12||	=12||
4C/	Quo-	4G/	Quo-	4g\	Quo-	4ee\	Quo-
4D/	-ni-	4G/	-ni-	4fn\	-ni-	4dd\	-ni-
4E/	-am	4G/	-am	4e\	-am	4cc\	-am
4F/	tu	4G/	tu	4d\ 4f	tu	4b\	tu
4E/	so-	4G/	so-	4e\	so-	4cc\	so-
4D/	-lus	4G/	-lus	4f\	-lus	4dd\	-lus
!	!	!LO:LB:g=original	!	!LO:LB:g=original	!	!	!
=13	=13	=13	=13	=13	=13	=13	=13
4C/	san-	2G/	san-	2e\	san-	2cc\	san-
4E\	.	.	.	.	.	.	.
2G\	-ctus	2G/	-ctus	2d\	-ctus	2b\	-ctus,
2G\	tu	2G/	tu	4d\	tu	4b\	tu
.	.	.	.	4e\	.	4cc\	.
!LO:LB:g=original	!	!	!	!	!	!	!
=14	=14	=14	=14	=14	=14	=14	=14
2G\	so-	2B\	so-	4f\	so-	4dd\	so-
.	.	.	.	4e\	.	4cc\	.
2B\	.	2G\	.	4f\	.	4dd\	.
.	.	.	.	4a\	.	4ff\	.
2G\	-lus	2B\	-lus	4g\	.	4ee\	-lus
.	.	.	.	4f\	-lus	4dd\	.
=15	=15	=15	=15	=15	=15	=15	=15
4c\	Do-	4G/	Do-	4f\	Do-	4dd\	Do-
4G\	-mi-	4G/	-mi-	4e\	-mi-	4cc\	-mi-
2C/	-nus	2G/	-nus	2e\	-nus	2cc\	-nus,
2C/	tu	2c\	tu	2g\	tu	2ee\	tu
!	!	!	!	!	!	!LO:LB:g=original	!
=16	=16	=16	=16	=16	=16	=16	=16
2C/	so-	2c\	so-	2g\	so-	2ee\	so-
4C/	-lus	4c\	-lus	4a\	-lus	4ff\	-lus
4E\	al-	4c\	al-	4g\	al-	4ee\	al-
4F\	-tis-	4B\	-tis-	4f\	-tis-	4dd\	-tis-
4F#X\	-si-	4c\	-si-	4e\	-si-	4cc\	-si-
=17	=17	=17	=17	=17	=17	=17	=17
1G	-mus	1G	-mus.	1d	-mus,	1b	-mus
2r	.	2r	.	2r	.	2r	.
=18	=18	=18	=18	=18	=18	=18	=18
4G\	Je-	1B	Je-	1f	Je-	1dd	Je-
4A\	.	.	.	.	.	.	.
4B\	.	.	.	.	.	.	.
4G\	-su	.	.	.	.	.	.
2c\	Chri-	2G/	-su	2e\	-su	2cc\	-su
=19	=19	=19	=19	=19	=19	=19	=19
2F\	.	2A/	Chri-	2d\	Chri-	2a\	Chri-
2G\	.	1G	.	2e\	.	2cc\	.
2GG/	.	.	.	2d\	.	2b\	.
=20	=20	=20	=20	=20	=20	=20	=20
2C/	-ste,	2G/	-ste,	2e\	-ste,	2cc\	-ste,
!	!	!	!	!LO:LB:g=original	!	!	!
2r	.	2r	.	2r	.	2r	.
2G\	cum	2G/	cum	2d\	Cum	2b\	Cum
!LO:LB:g=original	!	!LO:LB:g=original	!	!	!	!	!
=21	=21	=21	=21	=21	=21	=21	=21
4C/	san-	1G	san-	4e\	san-	1cc	san-
4D/	.	.	.	4f\	.	.	.
4E/	.	.	.	4g\	.	.	.
4D/	.	.	.	4f\	.	.	.
4E/	.	2G/	-cto	4g\	.	2cc\	-cto
4C/	-cto	.	.	4e\	-cto	.	.
=22	=22	=22	=22	=22	=22	=22	=22
2.G\	spi-	2.B\	spi-	2.d\	spi-	2.b\	spi-
4A\	-ri-	4B\	-ri-	4d\	-ri-	4b\	-ri-
4B\	-tu	4B\	-tu	4d\	-tu	4b\	-tu
4G\	in	4B\	in	4d\	in	4b\	in
!	!	!	!	!	!	!LO:LB:g=original	!
=23	=23	=23	=23	=23	=23	=23	=23
4G\	glo-	4B\	glo-	2.f\	glo-	2.dd\	glo-
4A\	.	4c\	.	.	.	.	.
4B\	.	4d\	.	.	.	.	.
4A\	.	4c\	.	4f\	-ri-	4dd\	-ri-
4B\	-ri-	4d\	-ri-	2f\	-a	2cc\	-a
4G\	-a	4B\	-a	.	.	.	.
=24	=24	=24	=24	=24	=24	=24	=24
4C/	De-	1G	De-	4e\	De-	4cc\	De-
4D/	.	.	.	4f\	.	4b\	.
4E\	.	.	.	4g\	.	4cc\	.
4F\	.	.	.	4f\	.	4b\	.
4E\	.	2G/	-i	4e\	.	4cc\	.
4D\	-i	.	.	4d\	-i	4b\	-i
=25	=25	=25	=25	=25	=25	=25	=25
1C	Pa-	2G/	Pa-	2e\	Pa-	2cc\	Pa-
.	.	2A\	.	2a\	.	2ff\	.
2C/	-tris	2c\	-tris	2g\	-tris	2ee\	-tris
=26	=26	=26	=26	=26	=26	=26	=26
2F\	a-	2A/	a-	2f\	a-	2dd\	a-
2G\	.	1G	.	2e\	.	2cc\	.
2GG/	.	.	.	2d\	.	2b\	.
=27	=27	=27	=27	=27	=27	=27	=27
1C	-men	1G	-men	2e\	-men,	1cc	-men
.	.	.	.	2r	.	.	.
2G\	a-	2G/	a-	2d\	a-	2b\	a-
=28	=28	=28	=28	=28	=28	=28	=28
1.C	-men.	1.G	-men.	1.e	-men.	1cc	-men.
.	.	.	.	.	.	2r	.
==	==	==	==	==	==	==	==
*-	*-	*-	*-	*-	*-	*-	*-
!!!system-decoration: [(s1,s2,s3,s4)]
!!!ENC: Andrzej Gręziak
!!!END: 2023-11-07
!!!EED: Jan Barakat
!!!EEV: 2023-12-01
